Newaita-dark/mimetypes/64/application-x-clementine.svg

<?xml version="1.0" encoding="UTF-8"?>
<svg xmlns="http://www.w3.org/2000/svg" xmlns:xlink="http://www.w3.org/1999/xlink" width="64px" height="64px" viewBox="0 0 64 64" version="1.1">
<defs>
<radialGradient id="radial0" gradientUnits="userSpaceOnUse" cx="450.908936" cy="189.579361" fx="450.908936" fy="189.579361" r="21.166656" gradientTransform="matrix(0.000000348341,-0.156265,-0.281277,-0.000000203077,89.046304,127.190659)">
<stop offset="0" style="stop-color:rgb(0%,0%,0%);stop-opacity:0.313726;"/>
<stop offset="0.222222" style="stop-color:rgb(0%,0%,0%);stop-opacity:0.27451;"/>
<stop offset="1" style="stop-color:rgb(0%,0%,0%);stop-opacity:0;"/>
</radialGradient>
<radialGradient id="radial1" gradientUnits="userSpaceOnUse" cx="450.908936" cy="189.579361" fx="450.908936" fy="189.579361" r="21.166656" gradientTransform="matrix(-0.000000348341,0.156265,0.281277,0.000000203077,-25.540237,-15.054964)">
<stop offset="0" style="stop-color:rgb(0%,0%,0%);stop-opacity:0.313726;"/>
<stop offset="0.222222" style="stop-color:rgb(0%,0%,0%);stop-opacity:0.27451;"/>
<stop offset="1" style="stop-color:rgb(0%,0%,0%);stop-opacity:0;"/>
</radialGradient>
<radialGradient id="radial2" gradientUnits="userSpaceOnUse" cx="450.908936" cy="189.579361" fx="450.908936" fy="189.579361" r="21.166656" gradientTransform="matrix(-0.000000348341,-0.156265,0.281277,-0.000000203077,-25.540237,127.190659)">
<stop offset="0" style="stop-color:rgb(0%,0%,0%);stop-opacity:0.313726;"/>
<stop offset="0.222222" style="stop-color:rgb(0%,0%,0%);stop-opacity:0.27451;"/>
<stop offset="1" style="stop-color:rgb(0%,0%,0%);stop-opacity:0;"/>
</radialGradient>
<radialGradient id="radial3" gradientUnits="userSpaceOnUse" cx="450.908936" cy="189.579361" fx="450.908936" fy="189.579361" r="21.166656" gradientTransform="matrix(0.000000348341,0.156265,-0.281277,0.000000203077,89.0463,-15.054965)">
<stop offset="0" style="stop-color:rgb(0%,0%,0%);stop-opacity:0.313726;"/>
<stop offset="0.222222" style="stop-color:rgb(0%,0%,0%);stop-opacity:0.27451;"/>
<stop offset="1" style="stop-color:rgb(0%,0%,0%);stop-opacity:0;"/>
</radialGradient>
<linearGradient id="linear0" gradientUnits="userSpaceOnUse" x1="255.323059" y1="233.5" x2="255.323044" y2="254.666656" gradientTransform="matrix(0.0267201,0,0,0.125012,24.930772,26.877567)">
<stop offset="0" style="stop-color:rgb(0%,0%,0%);stop-opacity:0.27451;"/>
<stop offset="1" style="stop-color:rgb(0%,0%,0%);stop-opacity:0;"/>
</linearGradient>
<linearGradient id="linear1" gradientUnits="userSpaceOnUse" x1="1040" y1="1695.118164" x2="1040" y2="175.118134" gradientTransform="matrix(0.0330761,0,0,0.0330761,0,0)">
<stop offset="0" style="stop-color:rgb(100%,65.490198%,14.901961%);stop-opacity:1;"/>
<stop offset="1" style="stop-color:rgb(100%,80.000001%,50.196081%);stop-opacity:1;"/>
</linearGradient>
<linearGradient id="linear2" gradientUnits="userSpaceOnUse" x1="960" y1="1695.118164" x2="960" y2="175.118118" gradientTransform="matrix(0.0330761,0,0,0.0330761,0,0)">
<stop offset="0" style="stop-color:rgb(100%,80.000001%,50.196081%);stop-opacity:1;"/>
<stop offset="1" style="stop-color:rgb(100%,87.843138%,69.803923%);stop-opacity:1;"/>
</linearGradient>
<linearGradient id="linear3" gradientUnits="userSpaceOnUse" x1="680" y1="255.118118" x2="640" y2="1695.118164" gradientTransform="matrix(0.0330761,0,0,0.0330761,0,0)">
<stop offset="0" style="stop-color:rgb(100%,43.921569%,26.274511%);stop-opacity:1;"/>
<stop offset="1" style="stop-color:rgb(100%,34.117648%,13.333334%);stop-opacity:1;"/>
</linearGradient>
</defs>
<g id="surface1">
<path style=" stroke:none;fill-rule:nonzero;fill:url(#radial0);" d="M 36.382812 56.066406 L 41.675781 56.066406 L 41.675781 53.421875 L 36.382812 53.421875 Z M 36.382812 56.066406 "/>
<path style=" stroke:none;fill-rule:nonzero;fill:url(#radial1);" d="M 27.121094 56.066406 L 21.832031 56.066406 L 21.832031 58.714844 L 27.121094 58.714844 Z M 27.121094 56.066406 "/>
<path style=" stroke:none;fill-rule:nonzero;fill:url(#radial2);" d="M 27.121094 56.066406 L 21.832031 56.066406 L 21.832031 53.421875 L 27.121094 53.421875 Z M 27.121094 56.066406 "/>
<path style=" stroke:none;fill-rule:nonzero;fill:url(#radial3);" d="M 36.382812 56.066406 L 41.675781 56.066406 L 41.675781 58.714844 L 36.382812 58.714844 Z M 36.382812 56.066406 "/>
<path style=" stroke:none;fill-rule:nonzero;fill:url(#linear0);" d="M 27.121094 55.40625 L 36.382812 55.40625 L 36.382812 58.714844 L 27.121094 58.714844 Z M 27.121094 55.40625 "/>
<path style=" stroke:none;fill-rule:nonzero;fill:url(#linear1);" d="M 27.417969 6.316406 C 19.84375 7.117188 10.585938 18.769531 10.585938 30.929688 C 10.585938 44.855469 20.027344 56.066406 31.753906 56.066406 C 36.921875 56.066406 55.566406 50.777344 52.921875 46.144531 C 50.277344 41.515625 38.367188 40.851562 33.074219 26.960938 C 31.089844 21.667969 31.753906 5.792969 27.417969 6.316406 Z M 27.417969 6.316406 "/>
<path style=" stroke:none;fill-rule:nonzero;fill:url(#linear2);" d="M 23.191406 7.761719 C 16.789062 11.363281 10.585938 20.976562 10.585938 30.929688 C 10.585938 44.855469 20.027344 56.066406 31.753906 56.066406 C 35.195312 56.066406 44.609375 53.722656 49.738281 50.785156 C 46.6875 50.625 43.917969 50.058594 42.402344 49.390625 C 35.0625 46.144531 21.570312 37.621094 21.726562 23.699219 C 21.789062 18.101562 21.875 12.359375 23.191406 7.761719 Z M 23.191406 7.761719 "/>
<path style=" stroke:none;fill-rule:nonzero;fill:url(#linear3);" d="M 21.566406 8.808594 C 15.777344 13.003906 10.585938 21.824219 10.585938 30.929688 C 10.585938 44.855469 20.027344 56.066406 31.753906 56.066406 C 34.664062 56.066406 41.84375 54.390625 47.09375 52.097656 C 47.050781 52.097656 47.011719 52.097656 46.96875 52.097656 C 31.210938 52.097656 18.523438 38.878906 18.523438 22.460938 L 18.523438 22.199219 C 18.523438 17.375 19.617188 12.828125 21.566406 8.808594 Z M 21.566406 8.808594 "/>
<path style=" stroke:none;fill-rule:nonzero;fill:rgb(100%,100%,100%);fill-opacity:0.392157;" d="M 27.617188 6.304688 C 27.550781 6.304688 27.484375 6.308594 27.417969 6.316406 C 19.84375 7.117188 10.585938 18.769531 10.585938 30.929688 C 10.585938 31.789062 10.621094 32.640625 10.691406 33.480469 C 10.644531 32.792969 10.621094 32.101562 10.621094 31.398438 C 10.621094 19.238281 19.882812 7.582031 27.453125 6.785156 C 31.789062 6.261719 31.128906 22.136719 33.113281 27.429688 C 38.402344 41.320312 50.3125 41.984375 52.957031 46.613281 C 53.0625 46.796875 53.132812 46.984375 53.175781 47.167969 C 53.195312 46.824219 53.117188 46.484375 52.921875 46.144531 C 50.277344 41.515625 38.367188 40.851562 33.074219 26.960938 C 31.121094 21.75 31.734375 6.285156 27.617188 6.304688 Z M 27.617188 6.304688 "/>
<path style=" stroke:none;fill-rule:nonzero;fill:rgb(0%,0%,0%);fill-opacity:0.27451;" d="M 10.585938 30.679688 C 10.585938 30.765625 10.585938 30.847656 10.585938 30.929688 C 10.585938 44.855469 20.027344 56.066406 31.753906 56.066406 C 36.675781 56.066406 53.839844 51.261719 53.15625 46.804688 C 52.519531 51.109375 36.484375 55.546875 31.753906 55.546875 C 20.101562 55.546875 10.707031 44.480469 10.585938 30.679688 Z M 10.585938 30.679688 "/>
<path style=" stroke:none;fill-rule:nonzero;fill:rgb(12.941177%,12.941177%,12.941177%);fill-opacity:1;" d="M 27.617188 6.117188 C 27.542969 6.117188 27.46875 6.121094 27.394531 6.128906 C 23.523438 6.539062 19.292969 9.691406 16.007812 14.253906 C 12.726562 18.816406 10.398438 24.800781 10.398438 30.929688 C 10.398438 44.941406 19.90625 56.253906 31.753906 56.253906 C 34.402344 56.253906 40.339844 54.925781 45.335938 53.019531 C 47.832031 52.0625 50.089844 50.964844 51.574219 49.796875 C 52.316406 49.210938 52.867188 48.609375 53.15625 47.976562 C 53.441406 47.347656 53.441406 46.679688 53.085938 46.050781 C 52.394531 44.84375 51.125 43.921875 49.542969 42.984375 C 47.964844 42.050781 46.066406 41.101562 44.089844 39.867188 C 40.140625 37.398438 35.882812 33.796875 33.25 26.894531 C 32.285156 24.3125 31.941406 19.007812 31.3125 14.433594 C 31 12.144531 30.617188 10.035156 30.027344 8.507812 C 29.730469 7.746094 29.386719 7.125 28.957031 6.703125 C 28.578125 6.332031 28.125 6.117188 27.617188 6.117188 Z M 27.617188 6.488281 C 28.023438 6.488281 28.367188 6.648438 28.691406 6.96875 C 29.0625 7.332031 29.394531 7.910156 29.675781 8.644531 C 30.246094 10.113281 30.632812 12.207031 30.941406 14.484375 C 31.566406 19.039062 31.882812 24.316406 32.902344 27.027344 C 35.5625 34.015625 39.90625 37.691406 43.890625 40.183594 C 45.886719 41.429688 47.789062 42.382812 49.351562 43.308594 C 50.914062 44.234375 52.125 45.132812 52.757812 46.238281 C 53.0625 46.769531 53.058594 47.277344 52.8125 47.824219 C 52.566406 48.367188 52.054688 48.9375 51.339844 49.5 C 49.914062 50.628906 47.679688 51.71875 45.199219 52.667969 C 40.242188 54.5625 34.273438 55.878906 31.753906 55.878906 C 20.144531 55.878906 10.773438 44.773438 10.773438 30.929688 C 10.773438 24.898438 13.074219 18.976562 16.3125 14.472656 C 19.554688 9.96875 23.738281 6.894531 27.4375 6.503906 L 27.441406 6.5 C 27.5 6.496094 27.558594 6.492188 27.617188 6.488281 Z M 27.617188 6.488281 "/>
</g>
</svg>

<svg xmlns="http://www.w3.org/2000/svg" width="64pt" height="64pt" viewBox="0 0 64 64"><defs><radialGradient id="a" gradientUnits="userSpaceOnUse" cx="450.909" cy="189.579" fx="450.909" fy="189.579" r="21.167" gradientTransform="matrix(0 -.15626 -.28128 0 89.046 127.19)"><stop offset="0" stop-opacity=".314"/><stop offset=".222" stop-opacity=".275"/><stop offset="1" stop-opacity="0"/></radialGradient><radialGradient id="b" gradientUnits="userSpaceOnUse" cx="450.909" cy="189.579" fx="450.909" fy="189.579" r="21.167" gradientTransform="matrix(0 .15626 .28128 0 -25.54 -15.055)"><stop offset="0" stop-opacity=".314"/><stop offset=".222" stop-opacity=".275"/><stop offset="1" stop-opacity="0"/></radialGradient><radialGradient id="c" gradientUnits="userSpaceOnUse" cx="450.909" cy="189.579" fx="450.909" fy="189.579" r="21.167" gradientTransform="matrix(0 -.15626 .28128 0 -25.54 127.19)"><stop offset="0" stop-opacity=".314"/><stop offset=".222" stop-opacity=".275"/><stop offset="1" stop-opacity="0"/></radialGradient><radialGradient id="d" gradientUnits="userSpaceOnUse" cx="450.909" cy="189.579" fx="450.909" fy="189.579" r="21.167" gradientTransform="matrix(0 .15626 -.28128 0 89.046 -15.055)"><stop offset="0" stop-opacity=".314"/><stop offset=".222" stop-opacity=".275"/><stop offset="1" stop-opacity="0"/></radialGradient><linearGradient id="e" gradientUnits="userSpaceOnUse" x1="255.323" y1="233.5" x2="255.323" y2="254.667" gradientTransform="matrix(.02672 0 0 .12501 24.93 26.878)"><stop offset="0" stop-opacity=".275"/><stop offset="1" stop-opacity="0"/></linearGradient><linearGradient id="f" gradientUnits="userSpaceOnUse" x1="1040" y1="1695.118" x2="1040" y2="175.118" gradientTransform="scale(.03308)"><stop offset="0" stop-color="#ffa726"/><stop offset="1" stop-color="#ffcc80"/></linearGradient><linearGradient id="g" gradientUnits="userSpaceOnUse" x1="960" y1="1695.118" x2="960" y2="175.118" gradientTransform="scale(.03308)"><stop offset="0" stop-color="#ffcc80"/><stop offset="1" stop-color="#ffe0b2"/></linearGradient><linearGradient id="h" gradientUnits="userSpaceOnUse" x1="680" y1="255.118" x2="640" y2="1695.118" gradientTransform="scale(.03308)"><stop offset="0" stop-color="#ff7043"/><stop offset="1" stop-color="#ff5722"/></linearGradient></defs><path d="M36.383 56.066h5.293v-2.644h-5.293zm0 0" fill="url(#a)"/><path d="M27.121 56.066h-5.289v2.649h5.29zm0 0" fill="url(#b)"/><path d="M27.121 56.066h-5.289v-2.644h5.29zm0 0" fill="url(#c)"/><path d="M36.383 56.066h5.293v2.649h-5.293zm0 0" fill="url(#d)"/><path d="M27.121 55.406h9.262v3.309H27.12zm0 0" fill="url(#e)"/><path d="M27.418 6.316c-7.574.801-16.832 12.454-16.832 24.614 0 13.925 9.441 25.136 21.168 25.136 5.168 0 23.812-5.289 21.168-9.921-2.645-4.63-14.555-5.293-19.848-19.184-1.984-5.293-1.32-21.168-5.656-20.645zm0 0" fill="url(#f)"/><path d="M23.191 7.762C16.79 11.363 10.586 20.977 10.586 30.93c0 13.925 9.441 25.136 21.168 25.136 3.441 0 12.855-2.343 17.984-5.28-3.05-.161-5.82-.727-7.336-1.395-7.34-3.246-20.832-11.77-20.675-25.692.062-5.597.148-11.34 1.464-15.937zm0 0" fill="url(#g)"/><path d="M21.566 8.809c-5.789 4.195-10.98 13.015-10.98 22.12 0 13.926 9.441 25.137 21.168 25.137 2.91 0 10.09-1.675 15.34-3.968h-.125c-15.758 0-28.446-13.22-28.446-29.637v-.262c0-4.824 1.094-9.37 3.043-13.39zm0 0" fill="url(#h)"/><path d="M27.617 6.305c-.066 0-.133.004-.199.011-7.574.801-16.832 12.454-16.832 24.614 0 .86.035 1.71.105 2.55a30.543 30.543 0 0 1-.07-2.082c0-12.16 9.262-23.816 16.832-24.613 4.336-.523 3.676 15.352 5.66 20.645 5.29 13.89 17.2 14.554 19.844 19.183.105.184.176.371.219.555a1.807 1.807 0 0 0-.254-1.023c-2.645-4.63-14.555-5.293-19.848-19.184-1.953-5.211-1.34-20.676-5.457-20.656zm0 0" fill="#fff" fill-opacity=".392"/><path d="M10.586 30.68v.25c0 13.925 9.441 25.136 21.168 25.136 4.922 0 22.086-4.804 21.402-9.261-.636 4.304-16.672 8.742-21.402 8.742-11.652 0-21.047-11.067-21.168-24.867zm0 0" fill-opacity=".275"/><path d="M27.617 6.117c-.074 0-.148.004-.222.012-3.872.41-8.102 3.562-11.387 8.125-3.281 4.562-5.61 10.547-5.61 16.676 0 14.011 9.508 25.324 21.356 25.324 2.648 0 8.586-1.328 13.582-3.234 2.496-.958 4.754-2.055 6.238-3.223.742-.586 1.293-1.188 1.582-1.82.285-.63.285-1.297-.07-1.926-.691-1.207-1.961-2.13-3.543-3.067-1.578-.933-3.477-1.882-5.453-3.117-3.95-2.469-8.207-6.07-10.84-12.972-.965-2.582-1.309-7.887-1.938-12.461-.312-2.29-.695-4.399-1.285-5.926-.297-.762-.64-1.383-1.07-1.805-.379-.371-.832-.586-1.34-.586zm0 .371c.406 0 .75.16 1.074.48.372.364.704.942.985 1.677.57 1.468.957 3.562 1.265 5.84.625 4.554.942 9.831 1.961 12.542 2.66 6.989 7.004 10.664 10.989 13.157 1.996 1.246 3.898 2.199 5.46 3.125 1.563.925 2.774 1.824 3.407 2.93.304.53.3 1.038.054 1.585-.246.543-.757 1.114-1.472 1.676-1.426 1.129-3.66 2.219-6.14 3.168-4.958 1.895-10.927 3.21-13.446 3.21-11.61 0-20.98-11.105-20.98-24.948 0-6.032 2.3-11.953 5.539-16.457 3.242-4.504 7.425-7.578 11.125-7.97l.003-.003.176-.012zm0 0" fill="#212121"/></svg>
